;FLAVOR:UltiGCode
;TIME:398
;MATERIAL:1002
;MATERIAL2:0
;NOZZLE_DIAMETER:0.4
;Generated with Cura_SteamEngine 3.2.1
M82 ;absolute extrusion mode

;LAYER_COUNT:12
;LAYER:0
M107
G0 F3600 X49.093 Y48.838 Z0.3
;TYPE:SKIRT
G1 F1800 X49.444 Y48.505 E0.05806
G1 X50.532 Y47.593 E0.22842
G1 X50.917 Y47.307 E0.28597
G1 X52.052 Y46.567 E0.44856
G1 X52.466 Y46.331 E0.50575
G1 X53.726 Y45.709 E0.67437
G1 X54.08 Y45.555 E0.72069
G1 X54.896 Y45.246 E0.8254
G1 X55.273 Y45.125 E0.87291
G1 X56.636 Y44.758 E1.0423
G1 X57.089 Y44.663 E1.09784
G1 X58.309 Y44.482 E1.24584
G1 X58.755 Y44.441 E1.29959
G1 X60.143 Y44.392 E1.46625
G1 X60.605 Y44.403 E1.52171
G1 X61.911 Y44.508 E1.67893
G1 X62.377 Y44.573 E1.7354
G1 X63.763 Y44.851 E1.90503
G1 X64.349 Y45.016 E1.97808
G1 X66.343 Y45.745 E2.23285
G1 X66.895 Y45.996 E2.30562
G1 X68.119 Y46.668 E2.47318
G1 X68.524 Y46.922 E2.53055
G1 X69.649 Y47.728 E2.69662
G1 X70.019 Y48.028 E2.75378
G1 X71.015 Y48.939 E2.91575
G1 X71.284 Y49.21 E2.96158
G1 X71.89 Y49.881 E3.07007
G1 X72.14 Y50.188 E3.11758
G1 X72.975 Y51.32 E3.28638
G1 X73.237 Y51.724 E3.34416
G1 X73.901 Y52.897 E3.50591
G1 X74.093 Y53.282 E3.55754
G1 X74.566 Y54.378 E3.70078
G1 X74.755 Y54.921 E3.76978
G1 X75.308 Y56.97 E4.02445
G1 X75.421 Y57.566 E4.09725
G1 X75.575 Y58.938 E4.26292
G1 X75.6 Y59.405 E4.31904
G1 X75.593 Y60.76 E4.48164
G1 X75.562 Y61.237 E4.539
G1 X75.386 Y62.641 E4.7088
G1 X75.318 Y63.029 E4.75607
G1 X75.121 Y63.896 E4.86276
G1 X75.012 Y64.283 E4.91101
G1 X74.563 Y65.621 E5.08037
G1 X74.386 Y66.06 E5.13717
G1 X73.804 Y67.289 E5.30035
G1 X73.574 Y67.707 E5.3576
G1 X72.817 Y68.91 E5.52817
G1 X72.541 Y69.296 E5.58511
G1 X71.701 Y70.334 E5.74535
G1 X71.376 Y70.69 E5.80319
G1 X70.339 Y71.695 E5.97648
G1 X69.971 Y72.011 E6.03469
G1 X68.876 Y72.841 E6.19957
G1 X68.479 Y73.106 E6.25685
G1 X67.261 Y73.818 E6.42615
G1 X66.723 Y74.081 E6.49801
G1 X64.809 Y74.844 E6.74527
G1 X64.28 Y75.013 E6.81191
G1 X63.149 Y75.29 E6.95164
G1 X62.713 Y75.372 E7.00488
G1 X61.33 Y75.552 E7.17224
G1 X60.847 Y75.585 E7.23033
G1 X59.412 Y75.597 E7.40254
G1 X58.931 Y75.572 E7.46034
G1 X57.59 Y75.421 E7.62227
G1 X57.13 Y75.342 E7.67828
G1 X55.787 Y75.029 E7.84376
G1 X55.407 Y74.92 E7.8912
G1 X54.534 Y74.623 E8.00186
G1 X54.192 Y74.489 E8.04593
G1 X53.107 Y74.005 E8.1885
G1 X52.717 Y73.805 E8.2411
G1 X51.546 Y73.12 E8.40389
G1 X51.15 Y72.855 E8.46107
G1 X50.014 Y71.994 E8.63212
G1 X49.708 Y71.737 E8.68007
G1 X49.06 Y71.135 E8.78621
G1 X48.81 Y70.881 E8.82898
G1 X48.013 Y69.996 E8.9719
G1 X47.739 Y69.656 E9.0243
G1 X46.957 Y68.57 E9.18489
G1 X46.697 Y68.159 E9.24325
G1 X45.983 Y66.859 E9.42123
G1 X45.812 Y66.508 E9.46808
G1 X45.486 Y65.747 E9.56743
G1 X45.318 Y65.275 E9.62755
G1 X44.753 Y63.305 E9.87348
G1 X44.636 Y62.75 E9.94154
G1 X44.469 Y61.543 E10.08776
G1 X44.432 Y61.103 E10.14075
G1 X44.395 Y59.729 E10.30569
G1 X44.411 Y59.252 E10.36296
G1 X44.539 Y57.87 E10.52951
G1 X44.598 Y57.465 E10.57862
G1 X44.787 Y56.507 E10.6958
G1 X44.873 Y56.153 E10.73951
G1 X45.19 Y55.074 E10.87447
G1 X45.331 Y54.675 E10.92525
G1 X45.859 Y53.397 E11.09118
G1 X46.071 Y52.961 E11.14936
G1 X46.766 Y51.727 E11.31931
G1 X47.028 Y51.321 E11.37729
G1 X47.836 Y50.222 E11.54098
G1 X48.138 Y49.859 E11.59764
G1 X49.093 Y48.838 E11.76541
G0 F3600 X49.385 Y49.111
G1 F1800 X49.701 Y48.811 E11.81769
G1 X50.789 Y47.899 E11.98805
G1 X51.136 Y47.642 E12.03987
G1 X52.271 Y46.902 E12.20246
G1 X52.643 Y46.69 E12.25384
G1 X53.903 Y46.068 E12.42246
G1 X54.222 Y45.929 E12.46422
G1 X55.038 Y45.62 E12.56892
G1 X55.377 Y45.511 E12.61165
G1 X56.74 Y45.144 E12.78104
G1 X57.148 Y45.059 E12.83105
G1 X58.368 Y44.878 E12.97905
G1 X58.769 Y44.841 E13.02738
G1 X60.157 Y44.792 E13.19404
G1 X60.573 Y44.802 E13.24398
G1 X61.879 Y44.907 E13.4012
G1 X62.298 Y44.965 E13.45196
G1 X63.684 Y45.243 E13.62159
G1 X64.212 Y45.392 E13.68743
G1 X66.206 Y46.121 E13.9422
G1 X66.703 Y46.346 E14.00767
G1 X67.927 Y47.018 E14.17523
G1 X68.291 Y47.248 E14.2269
G1 X69.416 Y48.054 E14.39297
G1 X69.749 Y48.324 E14.44441
G1 X70.745 Y49.235 E14.60639
G1 X70.987 Y49.478 E14.64754
G1 X71.593 Y50.149 E14.75604
G1 X71.818 Y50.425 E14.79877
G1 X72.653 Y51.557 E14.96757
G1 X72.889 Y51.921 E15.01962
G1 X73.553 Y53.094 E15.18137
G1 X73.725 Y53.441 E15.22785
G1 X74.198 Y54.537 E15.37109
G1 X74.369 Y55.025 E15.43314
G1 X74.922 Y57.074 E15.68782
G1 X75.024 Y57.61 E15.75329
G1 X75.178 Y58.982 E15.91897
G1 X75.2 Y59.403 E15.96956
G1 X75.193 Y60.758 E16.13216
G1 X75.165 Y61.187 E16.18375
G1 X74.989 Y62.591 E16.35355
G1 X74.928 Y62.941 E16.39618
G1 X74.731 Y63.808 E16.50287
G1 X74.633 Y64.155 E16.54614
G1 X74.184 Y65.493 E16.7155
G1 X74.025 Y65.889 E16.76671
G1 X73.443 Y67.118 E16.92989
G1 X73.236 Y67.494 E16.98139
G1 X72.479 Y68.697 E17.15196
G1 X72.23 Y69.045 E17.20331
G1 X71.39 Y70.083 E17.36354
G1 X71.097 Y70.403 E17.41561
G1 X70.06 Y71.408 E17.5889
G1 X69.73 Y71.692 E17.64114
G1 X68.635 Y72.522 E17.80603
G1 X68.277 Y72.761 E17.85768
G1 X67.059 Y73.473 E18.02698
G1 X66.575 Y73.709 E18.0916
G1 X64.661 Y74.472 E18.33885
G1 X64.184 Y74.625 E18.39897
G1 X63.053 Y74.902 E18.5387
G1 X62.662 Y74.975 E18.58643
G1 X61.279 Y75.155 E18.75379
G1 X60.844 Y75.185 E18.80611
G1 X59.409 Y75.197 E18.97832
G1 X58.976 Y75.174 E19.03035
G1 X57.635 Y75.023 E19.19229
G1 X57.221 Y74.952 E19.24269
G1 X55.878 Y74.639 E19.40817
G1 X55.536 Y74.541 E19.45086
G1 X54.663 Y74.244 E19.56152
G1 X54.355 Y74.124 E19.60119
G1 X53.27 Y73.64 E19.74375
G1 X52.919 Y73.459 E19.79114
G1 X51.748 Y72.774 E19.95394
G1 X51.391 Y72.536 E20.00543
G1 X50.255 Y71.675 E20.17648
G1 X49.98 Y71.443 E20.21965
G1 X49.332 Y70.841 E20.32579
G1 X49.107 Y70.613 E20.36423
G1 X48.31 Y69.728 E20.50715
G1 X48.064 Y69.423 E20.55417
G1 X47.282 Y68.337 E20.71476
G1 X47.048 Y67.966 E20.7674
G1 X46.334 Y66.666 E20.94538
G1 X46.18 Y66.351 E20.98745
G1 X45.854 Y65.59 E21.0868
G1 X45.703 Y65.164 E21.14103
G1 X45.138 Y63.194 E21.38696
G1 X45.032 Y62.695 E21.44818
G1 X44.865 Y61.488 E21.5944
G1 X44.832 Y61.092 E21.64209
G1 X44.795 Y59.718 E21.80703
G1 X44.809 Y59.289 E21.85853
G1 X44.937 Y57.907 E22.02508
G1 X44.99 Y57.542 E22.06934
G1 X45.179 Y56.584 E22.18652
G1 X45.257 Y56.266 E22.22581
G1 X45.574 Y55.187 E22.36076
G1 X45.701 Y54.827 E22.40657
G1 X46.229 Y53.549 E22.5725
G1 X46.419 Y53.157 E22.62478
G1 X47.114 Y51.923 E22.79473
G1 X47.351 Y51.558 E22.84695
G1 X48.159 Y50.459 E23.01064
G1 X48.43 Y50.132 E23.0616
G1 X49.385 Y49.111 E23.22937
G0 F3600 X49.677 Y49.384
G1 F1800 X49.958 Y49.118 E23.2758
G1 X51.046 Y48.206 E23.44616
G1 X51.354 Y47.977 E23.49222
G1 X52.489 Y47.237 E23.65481
G1 X52.821 Y47.049 E23.70059
G1 X54.081 Y46.427 E23.86921
G1 X54.364 Y46.303 E23.90629
G1 X55.18 Y45.994 E24.01099
G1 X55.481 Y45.897 E24.04894
G1 X56.844 Y45.53 E24.21833
G1 X57.206 Y45.455 E24.26269
G1 X58.426 Y45.274 E24.41069
G1 X58.783 Y45.241 E24.45372
G1 X60.171 Y45.192 E24.62038
G1 X60.54 Y45.2 E24.66467
G1 X61.846 Y45.305 E24.8219
G1 X62.219 Y45.357 E24.86709
G1 X63.605 Y45.635 E25.03672
G1 X64.075 Y45.768 E25.09534
G1 X66.069 Y46.497 E25.35011
G1 X66.51 Y46.697 E25.40821
G1 X67.734 Y47.369 E25.57577
G1 X68.058 Y47.573 E25.62172
G1 X69.183 Y48.379 E25.78779
G1 X69.479 Y48.619 E25.83352
G1 X70.475 Y49.53 E25.99549
G1 X70.69 Y49.746 E26.03207
G1 X71.296 Y50.417 E26.14056
G1 X71.496 Y50.662 E26.17851
G1 X72.331 Y51.794 E26.34731
G1 X72.541 Y52.118 E26.39364
G1 X73.205 Y53.291 E26.55539
G1 X73.358 Y53.599 E26.59666
G1 X73.831 Y54.695 E26.73991
G1 X73.982 Y55.129 E26.79505
G1 X74.535 Y57.178 E27.04973
G1 X74.626 Y57.655 E27.108
G1 X74.78 Y59.027 E27.27367
G1 X74.8 Y59.401 E27.31862
G1 X74.793 Y60.756 E27.48122
G1 X74.768 Y61.137 E27.52704
G1 X74.592 Y62.541 E27.69684
G1 X74.537 Y62.852 E27.73473
G1 X74.34 Y63.719 E27.84143
G1 X74.254 Y64.028 E27.87992
G1 X73.805 Y65.366 E28.04927
G1 X73.663 Y65.718 E28.09482
G1 X73.081 Y66.947 E28.258
G1 X72.897 Y67.281 E28.30376
G1 X72.14 Y68.484 E28.47433
G1 X71.92 Y68.793 E28.51984
G1 X71.08 Y69.831 E28.68008
G1 X70.819 Y70.116 E28.72645
G1 X69.782 Y71.121 E28.89975
G1 X69.488 Y71.373 E28.94621
G1 X68.393 Y72.203 E29.11109
G1 X68.075 Y72.416 E29.15702
G1 X66.857 Y73.128 E29.32632
G1 X66.427 Y73.338 E29.38375
G1 X64.513 Y74.101 E29.63101
G1 X64.089 Y74.236 E29.6844
G1 X62.958 Y74.513 E29.82413
G1 X62.61 Y74.578 E29.86662
G1 X61.227 Y74.758 E30.03398
G1 X60.841 Y74.785 E30.08041
G1 X59.406 Y74.797 E30.25262
G1 X59.021 Y74.777 E30.29888
G1 X57.68 Y74.626 E30.46081
G1 X57.312 Y74.562 E30.50564
G1 X55.969 Y74.249 E30.67112
G1 X55.664 Y74.162 E30.70918
G1 X54.791 Y73.865 E30.81983
G1 X54.518 Y73.758 E30.85502
G1 X53.433 Y73.274 E30.99759
G1 X53.121 Y73.114 E31.03966
G1 X51.95 Y72.429 E31.20246
G1 X51.633 Y72.217 E31.24822
G1 X50.497 Y71.356 E31.41927
G1 X50.252 Y71.15 E31.45768
G1 X49.604 Y70.548 E31.56382
G1 X49.404 Y70.345 E31.59802
G1 X48.607 Y69.46 E31.74094
G1 X48.388 Y69.189 E31.78275
G1 X47.606 Y68.103 E31.94334
G1 X47.398 Y67.773 E31.99015
G1 X46.684 Y66.473 E32.16813
G1 X46.548 Y66.193 E32.20548
G1 X46.222 Y65.432 E32.30483
G1 X46.087 Y65.054 E32.35299
G1 X45.522 Y63.084 E32.59892
G1 X45.428 Y62.641 E32.65327
G1 X45.261 Y61.434 E32.79949
G1 X45.232 Y61.081 E32.84199
G1 X45.195 Y59.707 E33.00693
G1 X45.208 Y59.326 E33.05268
G1 X45.336 Y57.944 E33.21923
G1 X45.383 Y57.62 E33.25851
G1 X45.572 Y56.662 E33.37569
G1 X45.641 Y56.379 E33.41064
G1 X45.958 Y55.3 E33.5456
G1 X46.07 Y54.98 E33.58628
G1 X46.598 Y53.702 E33.75221
G1 X46.768 Y53.354 E33.79869
G1 X47.463 Y52.12 E33.96864
G1 X47.673 Y51.794 E34.01517
G1 X48.481 Y50.695 E34.17886
G1 X48.722 Y50.405 E34.22411
G1 X49.677 Y49.384 E34.39187
G10
G0 F3600 X55.489 Y48.571
G0 X55.992 Y49.752
G0 X60.498 Y49.086
G0 X60.502 Y48.987
;TYPE:WALL-INNER
G11
G1 F1800 X61.159 Y49.036 E34.47093
G1 X61.811 Y49.124 E34.54988
G1 X62.442 Y49.248 E34.62705
G1 X63.112 Y49.422 E34.71012
G1 X63.719 Y49.619 E34.7867
G1 X64.33 Y49.859 E34.86547
G1 X64.939 Y50.142 E34.94606
G1 X65.509 Y50.448 E35.02369
G1 X66.077 Y50.799 E35.10381
G1 X66.621 Y51.182 E35.18365
G1 X67.123 Y51.583 E35.26075
G1 X67.623 Y52.034 E35.34155
G1 X68.088 Y52.506 E35.42106
G1 X68.521 Y53.001 E35.49998
G1 X68.911 Y53.505 E35.57645
G1 X69.296 Y54.07 E35.6585
G1 X69.633 Y54.633 E35.73723
G1 X69.938 Y55.223 E35.81694
G1 X70.206 Y55.826 E35.89612
G1 X70.434 Y56.43 E35.97359
G1 X70.629 Y57.061 E36.05285
G1 X70.785 Y57.704 E36.13224
G1 X70.905 Y58.362 E36.21251
G1 X70.983 Y59.009 E36.29071
G1 X71.022 Y59.664 E36.36945
G1 X71.022 Y60.336 E36.45009
G1 X70.984 Y60.979 E36.52738
G1 X70.905 Y61.635 E36.60667
G1 X70.785 Y62.297 E36.68741
G1 X70.629 Y62.938 E36.76657
G1 X70.435 Y63.568 E36.84567
G1 X70.206 Y64.174 E36.92341
G1 X69.938 Y64.777 E37.0026
G1 X69.633 Y65.367 E37.0823
G1 X69.296 Y65.93 E37.16104
G1 X68.915 Y66.49 E37.24232
G1 X68.529 Y66.988 E37.31792
G1 X68.072 Y67.513 E37.40145
G1 X67.634 Y67.956 E37.47621
G1 X67.123 Y68.417 E37.55879
G1 X66.621 Y68.818 E37.63589
G1 X66.077 Y69.201 E37.71573
G1 X65.511 Y69.551 E37.79558
G1 X64.939 Y69.858 E37.87349
G1 X64.33 Y70.141 E37.95407
G1 X63.719 Y70.381 E38.03285
G1 X63.112 Y70.578 E38.10943
G1 X62.442 Y70.752 E38.19249
G1 X61.811 Y70.876 E38.26966
G1 X61.159 Y70.964 E38.34861
G1 X60.502 Y71.013 E38.42767
G1 X59.848 Y71.024 E38.50616
G1 X59.171 Y70.992 E38.58749
G1 X58.523 Y70.925 E38.66567
G1 X57.871 Y70.817 E38.74497
G1 X57.231 Y70.671 E38.82374
G1 X56.584 Y70.481 E38.90466
G1 X55.984 Y70.265 E38.98119
G1 X55.372 Y70.005 E39.06098
G1 X54.767 Y69.702 E39.14218
G1 X54.213 Y69.382 E39.21895
G1 X53.658 Y69.016 E39.29873
G1 X53.132 Y68.622 E39.37759
G1 X52.629 Y68.196 E39.45669
G1 X52.152 Y67.739 E39.53596
G1 X51.693 Y67.246 E39.61679
G1 X51.28 Y66.743 E39.69489
G1 X50.891 Y66.206 E39.77446
G1 X50.536 Y65.649 E39.85372
G1 X50.218 Y65.08 E39.93194
G1 X49.924 Y64.468 E40.01342
G1 X49.681 Y63.874 E40.09043
G1 X49.469 Y63.253 E40.16917
G1 X49.291 Y62.607 E40.24958
G1 X49.155 Y61.97 E40.32775
G1 X49.055 Y61.299 E40.40915
G1 X48.998 Y60.673 E40.48459
G1 X48.978 Y60.006 E40.56466
G1 X48.998 Y59.323 E40.64666
G1 X49.055 Y58.701 E40.72161
G1 X49.156 Y58.025 E40.80363
G1 X49.291 Y57.392 E40.8813
G1 X49.469 Y56.745 E40.96182
G1 X49.683 Y56.12 E41.0411
G1 X49.924 Y55.532 E41.11735
G1 X50.22 Y54.916 E41.19937
G1 X50.536 Y54.351 E41.27705
G1 X50.891 Y53.794 E41.35631
G1 X51.28 Y53.257 E41.43588
G1 X51.706 Y52.739 E41.51636
G1 X52.155 Y52.257 E41.59541
G1 X52.631 Y51.802 E41.67443
G1 X53.124 Y51.384 E41.75199
G1 X53.658 Y50.984 E41.83205
G1 X54.216 Y50.616 E41.91226
G1 X54.767 Y50.298 E41.98861
G1 X55.372 Y49.995 E42.0698
G1 X55.985 Y49.734 E42.14975
G1 X56.584 Y49.519 E42.22612
G1 X57.231 Y49.329 E42.30704
G1 X57.871 Y49.183 E42.38581
G1 X58.523 Y49.075 E42.46512
G1 X59.171 Y49.008 E42.54329
G1 X59.848 Y48.976 E42.62463
G1 X60.502 Y48.987 E42.70312
G0 F3600 X60.498 Y49.086
G0 X67.999 Y67.445
G0 X68.374 Y67.776
;TYPE:WALL-OUTER
G1 F1800 X67.902 Y68.253 E42.78364
G1 X67.385 Y68.719 E42.86717
G1 X66.861 Y69.138 E42.94768
G1 X66.292 Y69.538 E43.03114
G1 X65.72 Y69.892 E43.11186
G1 X65.108 Y70.221 E43.19524
G1 X64.499 Y70.504 E43.27583
G1 X63.857 Y70.756 E43.35859
G1 X63.213 Y70.965 E43.43984
G1 X62.539 Y71.14 E43.5234
G1 X61.874 Y71.271 E43.60473
G1 X61.193 Y71.363 E43.68719
G1 X60.521 Y71.413 E43.76806
G1 X59.835 Y71.424 E43.85039
G1 X59.147 Y71.392 E43.93304
G1 X58.463 Y71.321 E44.01556
G1 X57.801 Y71.211 E44.09609
G1 X57.126 Y71.057 E44.17917
G1 X56.471 Y70.865 E44.26108
G1 X55.828 Y70.634 E44.34306
G1 X55.201 Y70.367 E44.42484
G1 X54.588 Y70.06 E44.50711
G1 X53.999 Y69.72 E44.58872
G1 X53.427 Y69.343 E44.67093
G1 X52.881 Y68.934 E44.75279
G1 X52.359 Y68.491 E44.83495
G1 X51.865 Y68.018 E44.91702
G1 X51.4 Y67.519 E44.99887
G1 X50.961 Y66.984 E45.08192
G1 X50.567 Y66.441 E45.16242
G1 X50.192 Y65.854 E45.24601
G1 X49.859 Y65.257 E45.32804
G1 X49.563 Y64.641 E45.41005
G1 X49.304 Y64.009 E45.49201
G1 X49.087 Y63.372 E45.57277
G1 X48.905 Y62.713 E45.65481
G1 X48.76 Y62.034 E45.73813
G1 X48.659 Y61.358 E45.82015
G1 X48.598 Y60.688 E45.90088
G1 X48.578 Y60.006 E45.98275
G1 X48.598 Y59.311 E46.06619
G1 X48.659 Y58.642 E46.1468
G1 X48.76 Y57.966 E46.22882
G1 X48.905 Y57.286 E46.31226
G1 X49.087 Y56.626 E46.39441
G1 X49.304 Y55.991 E46.47494
G1 X49.563 Y55.359 E46.5569
G1 X49.859 Y54.743 E46.63891
G1 X50.192 Y54.146 E46.72094
G1 X50.567 Y53.559 E46.80453
G1 X50.961 Y53.016 E46.88504
G1 X51.403 Y52.478 E46.96859
G1 X51.868 Y51.978 E47.05053
G1 X52.362 Y51.506 E47.13252
G1 X52.884 Y51.064 E47.2146
G1 X53.427 Y50.657 E47.29603
G1 X54.002 Y50.278 E47.37867
G1 X54.588 Y49.94 E47.45985
G1 X55.201 Y49.633 E47.54212
G1 X55.828 Y49.366 E47.62389
G1 X56.471 Y49.135 E47.70588
G1 X57.126 Y48.943 E47.78779
G1 X57.801 Y48.789 E47.87087
G1 X58.463 Y48.679 E47.9514
G1 X59.147 Y48.608 E48.03392
G1 X59.835 Y48.576 E48.11657
G1 X60.521 Y48.587 E48.1989
G1 X61.193 Y48.637 E48.27976
G1 X61.874 Y48.729 E48.36223
G1 X62.539 Y48.86 E48.44356
G1 X63.213 Y49.035 E48.52712
G1 X63.857 Y49.244 E48.60837
G1 X64.499 Y49.496 E48.69113
G1 X65.108 Y49.779 E48.77172
G1 X65.72 Y50.108 E48.8551
G1 X66.292 Y50.462 E48.93582
G1 X66.861 Y50.862 E49.01928
G1 X67.385 Y51.281 E49.09979
G1 X67.902 Y51.747 E49.18331
G1 X68.373 Y52.225 E49.26384
G1 X68.831 Y52.749 E49.34736
G1 X69.242 Y53.28 E49.42793
G1 X69.627 Y53.845 E49.50998
G1 X69.984 Y54.442 E49.59345
G1 X70.298 Y55.048 E49.67535
G1 X70.576 Y55.673 E49.75744
G1 X70.813 Y56.302 E49.8381
G1 X71.018 Y56.966 E49.92149
G1 X71.177 Y57.619 E50.00214
G1 X71.299 Y58.291 E50.08409
G1 X71.381 Y58.97 E50.16617
G1 X71.422 Y59.664 E50.24959
G1 X71.422 Y60.336 E50.33023
G1 X71.382 Y61.018 E50.41221
G1 X71.299 Y61.706 E50.49537
